!! Isochronous pitch passage.
!! Treble-line.
!! From Shostakovich, Preludes & Fugues, Opus 87, Prelude No. 22, bar 1ff.
!! Piano
!! 3/4 meter
**kern	**metpos
*M3/4	*M3/4
*tb8	*tb8
=1	=1
8r	1
8bb-	3
8bb-	2
8gg	3
8gg	2
8dd	3
=2	=2
8dd	1
8b-	3
8b-	2
8g	3
8g	2
8a	3
=3	=3
8a	1
8b-	3
8b-	2
8g	3
8g	2
8a	3
=4	=4
8a	1
8f#	3
8f#	2
8d	3
8d	2
8e-	3
=5	=5
8e-	1
8g-	3
8g-	2
8b-	3
8b-	2
8ee-	3
=6	=6
8ee-	1
8ff	3
8ff	2
8gg-	3
8gg-	2
8ee-	3
=7	=7
8ee-	1
8ddd-	3
8ddd-	2
8ccc	3
8ccc	2
8bb-	3
=8	=8
8r	1
8bb-	3
8bb-	2
8gg	3
8gg	2
8ee-	3
=9	=9
8ee-	1
8dd	3
8dd	2
8b-	3
8b-	2
8g	3
=10	=10
8g	1
8b-	3
8b-	2
8cc	3
8cc	2
8cc#	3
=11	=11
8cc#	1
8dd	3
8dd	2
8ee-	3
8ee-	2
8een	3
=12	=12
8r	1
8een	3
8ee	2
8gg	3
8gg	2
8dd	3
=13	=13
8dd	1
8ff#	3
8ff#	2
8cc	3
8cc	2
8een	3
=14	=14
8ee	1
8f#	3
8f#	2
8g	3
8g	2
8a	3
=15	=15
8a	1
8b-	3
8b-	2
8e-	3
8e-	2
8fn	3
=16	=16
8f	1
8f#	3
8f#	2
8bn	3
8b	2
8dd#	3
=17	=17
8dd#	1
8ff#	3
8ff#	2
8bbn	3
8bb	2
8ccc	3
=18	=18
8ccc	1
8bbn	3
8bb	2
8dddn	3
8ddd	2
8bb	3
=19	=19
8bbn	1
8ccc	3
8ccc	2
8bb	3
8bb	2
8ff#	3
=20	=20
8r	1
8gg	3
8gg	2
8dd	3
8dd	2
8b-	3
=21	=21
8b-	1
8a	3
8a	2
8g	3
8g	2
8f	3
=22	=22
8f	1
8e-	3
8e-	2
8g	3
8g	2
8b-	3
=23	=23
8b-	1
8cc	3
8cc	2
8dd-	3
8dd-	2
8ee-	3
=24	=24
8ee-	1
8cc	3
8cc	2
8ee-	3
8ee-	2
8ff	3
=25	=25
8ff	1
8ff#	3
8ff#	2
8gg	3
8gg	2
8ccc	3
=26	=26
8ccc	1
8gg	3
8gg	2
8ddd-	3
8ddd-	2
8ccc	3
=27	=27
8ccc	1
8gg	3
8gg	2
8eee-	3
8eee-	2
8ccc	3
=28	=28
8ccc	1
8eeen	3
8eee	2
8ccc	3
8ccc	2
8gg	3
=29	=29
8gg	1
8een	3
8ee	2
8cc	3
8cc	2
8aa-	3
=30	=30
8aa-	1
8gg	3
8gg	2
8een	3
8ee	2
8ee-	3
=31	=31
8ee-	1
8dd	3
8dd	2
8ff	3
8ff	2
8cc	3
=32	=32
8cc	1
8ee-	3
8ee-	2
8b-	3
8b-	2
8dd	3
=33	=33
8dd	1
8a	3
8a	2
8f	3
8r	2
8r	3
=34	=34
*-	*-
